X:353
T: Wenn ich ein Waldvgelein wr (4-52), S. 70
N: P0613
O: Lothringen
S: PINCK, Louis: Verklingende Weisen Bd 4, Kassel 1939]
R: Liebeslied]
M: 2/4
L: 1/16
K: G
D2 | G4A4 | B2B2c2A2 | d3ed4 | A4
A2B2 | A4F2F2 | G2G2E4 | D4z2
d2 | d4A2c2 | B2B2A4 | G4
A2c2 | B4A4 | G4
A2B2 | A4F2F2 | G2G2=F4 | D4z2
d2 | d4A2c2 | B2B2A4 | G4
A2c2 | B4A4 | G4z2

